X: 38528
T: Step It Out Joe
R: hornpipe
M: 4/4
K: Gmajor
D/E/F|:"G"G2 GA GE DE|GA Bd de dB|"D7"A2 AG A2 gA|A/A/A ga ge dB|
"G"G2 GA GE DE|GA Bd de dB|"D7"A2 A/B/d ea ab|1 ag ed BE ED:|2 "D7"ge dB A3e||
"a"ab ae ga ge|dB B/c/d BE ED|"G"GE DE GA Bd|de dB "D7"A2 A/B/d|
"a"ea ab g2 ge|dB AG EG GE|"G"DG G/G/G GB de|"D7"dB AE "G"G3e|
"a"ab ae ga ge|dB B/c/d BE ED|"G"GE DE GA Bd|de dB "D7"A2 A/B/d|
"a"ea ae ga bg|ag ed g2 ga|"G"ba ge ag eg|eA A/B/d "D7"BE ED||

